X:525
T:The woods of Kilkenny
R:Hornpipe
O:Ireland
S:O'Neill's
B:O'Neill's 1693
Z:Transcription:???, chords:Mike Long
M:4/4
L:1/8
K:D
A2|\
"D"dAFA dfaf|"A"gece "D"dcBA|"G"BGAF "A"E2(ef)|"A"gece "G"dcBA|\
"D"dAFA dfaf|
"A"gece "G"dcBA|"D"dfaf "G"bg"A"ec|"D"d2d2 d2:|\
|:(AG)|\
"D"F>A ~A2 d>A ~A2|"D"fdcd "G"BAGF|"A"E>e ~e2 "G"g>e ~e2|
"A"cege "G"dcBA|"G"gbbg "D"faaf|"A"gece "G"dcBA|"D"dfaf "G"bg"A"ec|"D"d2d2 d2:|
